assets/images/wrench.svg

<svg xmlns="http://www.w3.org/2000/svg" viewBox="0 0 26 26"><g id="Wrench" clip-path="url(#clip0_931_152974)"><path id="Shape" fill-rule="evenodd" d="M25.1669 8C25.1669 12.1421 21.809 15.5 17.6669 15.5C17.1701 15.5 16.6846 15.4517 16.2148 15.3595C15.7623 15.2708 15.2846 15.3822 14.9586 15.7083L7.04188 23.625C5.66117 25.0057 3.4226 25.0057 2.04188 23.625C0.661171 22.2443 0.661169 20.0057 2.04188 18.625L9.95858 10.7083C10.2846 10.3822 10.3961 9.90462 10.3074 9.45212C10.2152 8.98233 10.1669 8.4968 10.1669 8C10.1669 3.85786 13.5247 0.5 17.6669 0.5C18.4483 0.5 19.2018 0.619501 19.9101 0.841225C20.327 0.97174 20.424 1.49292 20.115 1.80185L15.7919 6.125L16.4169 9.25L19.5419 9.875L23.865 5.55185C24.174 5.24292 24.6951 5.33985 24.8257 5.75678C25.0474 6.46509 25.1669 7.21859 25.1669 8ZM5.79188 21.125C5.79188 21.8154 5.23224 22.375 4.54188 22.375C3.85153 22.375 3.29188 21.8154 3.29188 21.125C3.29188 20.4346 3.85153 19.875 4.54188 19.875C5.23224 19.875 5.79188 20.4346 5.79188 21.125Z" clip-rule="evenodd"/></g><defs><clipPath id="clip0_931_152974"><rect width="25" height="25" fill="#fff" transform="translate(0.166992 0.5)"/></clipPath></defs></svg>

<svg xmlns="http://www.w3.org/2000/svg" viewBox="0 0 26 26"><g clip-path="url(#a)"><path fill-rule="evenodd" d="M25.167 8a7.5 7.5 0 0 1-8.952 7.36c-.453-.09-.93.022-1.256.348l-7.917 7.917a3.536 3.536 0 0 1-5-5l7.917-7.917c.326-.326.437-.803.348-1.256A7.5 7.5 0 0 1 19.91.842c.417.13.514.65.205.96l-4.323 4.323.625 3.125 3.125.625 4.323-4.323c.309-.31.83-.212.96.205.222.708.342 1.462.342 2.243M5.792 21.125a1.25 1.25 0 1 1-2.5 0 1.25 1.25 0 0 1 2.5 0" clip-rule="evenodd"/></g><defs><clipPath id="a"><path fill="#fff" d="M.167.5h25v25h-25z"/></clipPath></defs></svg>
